dist/svgs/crypto-icons/icons/gbg.svg

<?xml version="1.0" encoding="UTF-8" standalone="yes"?>
<svg xmlns="http://www.w3.org/2000/svg" xmlns:xlink="http://www.w3.org/1999/xlink" width="472px" height="512px" viewBox="0 0 354 384" version="1.1">
  <g id="surface1">
    <path style=" stroke:none;fill-rule:evenodd;fill:rgb(0%,0%,0%);fill-opacity:1;" d="M 39.191406 161.199219 L 55.984375 161.199219 L 95.175781 159.398438 C 121.304688 158.199219 136.230469 156.132812 139.964844 153.199219 C 154.894531 150 166.226562 145.199219 173.957031 138.800781 C 183.554688 131.601562 191.285156 122.667969 197.148438 112 C 203.015625 101.332031 205.949219 89.601562 205.949219 76.800781 C 205.949219 55.46875 198.417969 37.332031 183.355469 22.398438 C 168.289062 7.46875 150.230469 0 129.167969 0 C 108.105469 0 90.042969 7.46875 74.980469 22.398438 C 59.917969 37.332031 52.386719 55.46875 52.386719 76.800781 C 52.386719 88.265625 54.71875 98.933594 59.386719 108.800781 C 64.050781 118.667969 70.25 127.199219 77.980469 134.398438 Z M 127.96875 16 C 136.5 16 144.765625 17.800781 152.761719 21.398438 C 160.757812 25 167.425781 30.132812 172.757812 36.800781 L 166.359375 42 C 161.558594 36.398438 155.828125 32 149.164062 28.800781 C 142.496094 25.601562 135.433594 24 127.96875 24 C 122.636719 24 117.4375 24.800781 112.371094 26.398438 C 107.308594 28 102.640625 30.398438 98.375 33.601562 L 93.578125 27.199219 C 98.640625 23.46875 104.039062 20.667969 109.773438 18.800781 C 115.503906 16.933594 121.570312 16 127.96875 16 Z M 340.3125 246.800781 C 333.648438 237.734375 324.71875 232.132812 313.519531 230 C 302.324219 227.867188 290.992188 227.46875 279.53125 228.800781 C 268.066406 230.132812 257.535156 232.53125 247.9375 236 C 238.605469 239.46875 232.339844 242.265625 229.140625 244.398438 L 235.140625 234.398438 C 239.40625 227.734375 244.070312 219.066406 249.136719 208.398438 C 254.203125 197.734375 259 185.734375 263.535156 172.398438 C 268.066406 158.800781 270.597656 145.066406 271.132812 131.199219 C 272.199219 105.867188 270.132812 83.53125 264.933594 64.199219 C 259.734375 44.867188 248.605469 28.53125 231.542969 15.199219 L 233.140625 32.398438 L 230.742188 73.601562 C 229.140625 101.066406 223.277344 117.46875 213.144531 122.800781 C 204.347656 139.867188 189.820312 153.867188 169.558594 164.800781 C 149.296875 176 129.167969 182.265625 109.171875 183.601562 C 88.910156 184.933594 70.714844 184.199219 54.585938 181.398438 C 38.457031 178.601562 25.328125 175.199219 15.195312 171.199219 L 0 164.800781 L 3.597656 174.800781 C 5.730469 181.199219 10.796875 188.734375 18.796875 197.398438 C 26.792969 206.066406 38.523438 214.667969 53.988281 223.199219 C 69.449219 231.734375 90.242188 238.132812 116.371094 242.398438 L 115.371094 267 L 95.976562 316.800781 C 83.046875 350 68.714844 360.199219 52.988281 347.398438 C 37.257812 334.601562 19.59375 330.132812 0 334 L 11.195312 359.601562 L 72.78125 384 C 106.105469 382.933594 131.5 376.667969 148.960938 365.199219 L 175.15625 348 L 256.734375 297.601562 L 272.132812 290 L 303.125 282.800781 C 314.054688 283.066406 322.320312 287.332031 327.917969 295.601562 C 333.515625 303.867188 337.914062 314.667969 341.113281 328 C 340.847656 327.46875 344.046875 318.398438 350.710938 300.800781 C 357.375 283.199219 353.910156 265.199219 340.3125 246.800781 Z M 340.3125 246.800781 "/>
  </g>
</svg>

<svg xmlns="http://www.w3.org/2000/svg" viewBox="0 0 354 384"><path fill-rule="evenodd" d="M39.191 161.2h16.793l39.192-1.802c26.129-1.199 41.054-3.265 44.789-6.199 14.93-3.199 26.262-8 33.992-14.398 9.598-7.2 17.328-16.133 23.191-26.801 5.868-10.668 8.801-22.398 8.801-35.2 0-21.331-7.531-39.468-22.594-54.402C168.29 7.468 150.23 0 129.168 0 108.105 0 90.043 7.469 74.98 22.398c-15.062 14.934-22.593 33.07-22.593 54.403 0 11.465 2.332 22.133 7 32 4.664 9.867 10.863 18.398 18.593 25.597zM127.97 16c8.531 0 16.797 1.8 24.793 5.398 7.996 3.602 14.664 8.735 19.996 15.403l-6.4 5.199c-4.8-5.602-10.53-10-17.195-13.2-6.668-3.198-13.73-4.8-21.195-4.8-5.332 0-10.531.8-15.598 2.398a46.51 46.51 0 00-13.996 7.204l-4.797-6.403c5.063-3.73 10.461-6.531 16.195-8.398C115.503 16.934 121.57 16 127.97 16zm212.344 230.8c-6.665-9.066-15.594-14.667-26.793-16.8-11.196-2.133-22.528-2.531-33.989-1.2-11.465 1.333-21.996 3.731-31.594 7.2-9.332 3.469-15.597 6.266-18.796 8.398l6-10c4.265-6.664 8.93-15.332 13.996-26 5.066-10.664 9.863-22.664 14.398-36 4.531-13.597 7.063-27.332 7.598-41.199 1.066-25.332-1-47.668-6.2-67-5.199-19.332-16.328-35.668-33.39-49l1.598 17.2-2.399 41.203c-1.601 27.464-7.465 43.867-17.597 49.199-8.797 17.066-23.325 31.066-43.586 42-20.262 11.199-40.391 17.465-60.387 18.8-20.262 1.333-38.457.598-54.586-2.203-16.129-2.796-29.258-6.199-39.39-10.199L0 164.801l3.598 10c2.132 6.398 7.199 13.933 15.199 22.597 7.996 8.668 19.726 17.27 35.191 25.801 15.461 8.535 36.254 14.934 62.383 19.2l-1 24.601-19.394 49.8c-12.93 33.2-27.262 43.4-42.989 30.598C37.258 334.602 19.594 330.133 0 334l11.195 25.602L72.781 384c33.324-1.066 58.719-7.332 76.18-18.8l26.195-17.2 81.578-50.398L272.133 290l30.992-7.2c10.93.266 19.195 4.532 24.793 12.802 5.598 8.265 9.996 19.066 13.195 32.398-.265-.531 2.934-9.602 9.598-27.2 6.664-17.6 3.2-35.6-10.399-54zm0 0"/></svg>
